X:1
T:Beloved, 65.85.68
T:Beloved, 65.85.68
T:Freeman Lewis (1780-1859)
T:Public Domain Courtesy of the Cyber Hymnal™
C:Freeman Lewis (1780-1859)
Z:Public Domain
Z:Courtesy of the Cyber Hymnal™
%%score ( 1 2 ) ( 3 4 )
L:1/8
M:4/4
K:D
V:1 treble 
V:2 treble 
V:3 bass 
V:4 bass 
V:1
 D2 | D2 [CE]2 [DF]2 [EG]2 | [FA]4 ([GB][FA]) [EG]2 | [DF]4 [CE]2 [CE]2 | D6 [FA]2 | %5
 [Fd]4 [Fd]2 [Fd]2 | [Ec]2 [CA]2 [DB]2 [DB]2 | [CA]6 [FA]2 | [Fd]4 (dc) [GB]2 | [FA]4 [DF]2 [FA]2 | %10
 [GB]4 ([GB][FA]) ([EG][DF]) | [CE]4 (D2 F2) | (A3 B) [DA]2 D2 | [DF]4 [CE]2 [CE]2 | D6 |] %15
V:2
 D2 | D2 x6 | x8 | x8 | D6 x2 | x8 | x8 | x8 | x4 F2 x2 | x8 | x8 | x4 D4 | D4 D2 x2 | x8 | D6 |] %15
V:3
 [D,F,]2 | [D,F,]2 [A,,A,]2 [D,A,]2 [D,D]2 | [D,D]4 [G,,D]2 [G,,B,]2 | [A,,A,]4 [A,,G,]2 [A,,G,]2 | %4
 [D,F,]6 [D,D]2 | [D,A,]4 [D,A,]2 [D,A,]2 | [E,A,]4 [E,^G,]2 [E,G,]2 | [A,,A,]6 [D,A,]2 | %8
 [D,A,]4 [D,A,]2 [D,D]2 | [D,D]4 [D,A,]2 [D,D]2 | [G,,D]4 [G,,D]2 [D,A,]2 | [A,,A,]4 (F,2 A,2) | %12
 (F,3 G,) [D,F,]2 [D,F,]2 | [A,,A,]4 [A,,G,]2 [A,,G,]2 | [D,F,]6 |] %15
V:4
 x2 | x8 | x8 | x8 | x8 | x8 | x8 | x8 | x8 | x8 | x8 | x4 D,4 | D,4 x4 | x8 | x6 |] %15

